!!!COM: Palestrina, Giovanni Perluigi da
!!!OPR: Missa In majoribus duplicibus
!!!OTL: Kyrie
**kern	**kern	**kern	**kern
*Ibass	*Itenor	*Icalto	*Icant
!Bassus	!Tenor	!Altus	!Cantus
*clefF4	*clefGv2	*clefG2	*clefG2
*k[]	*k[]	*k[]	*k[]
*?:X	*?:X	*?:X	*?:X
*M4/2	*M4/2	*M4/2	*M4/2
=1	=1	=1	=1
0r	0r	1r	0g
.	.	[1c	.
=2	=2	=2	=2
0r	0r	1c]	1a
.	.	1d	1b
=3	=3	=3	=3
0r	0r	2e	1b
.	.	1g	.
.	.	.	1a
.	.	2f	.
=4	=4	=4	=4
0r	0r	1e	2cc
.	.	.	2.b
.	.	2d	.
.	.	.	4a
.	.	2c	[2a
=5	=5	=5	=5
0r	0r	1B	2a]
.	.	.	2g#
.	.	4A	1a
.	.	4B	.
.	.	4c	.
.	.	4d	.
=6	=6	=6	=6
0r	0r	2e	2g
.	.	2.d	2f
.	.	.	1e
.	.	4c	.
.	.	[2c	.
=7	=7	=7	=7
1r	0G	2c]	1d
.	.	2B	.
[1C	.	[1c	[1e
=8	=8	=8	=8
1C]	1A	1c]	1e]
1D	1B	1r	1r
=9	=9	=9	=9
2E	1B	1r	0r
1G	.	.	.
.	1A	2r	.
2F	.	2d	.
=10	=10	=10	=10
1E	2c	2e	1g
.	2.B	2g	.
2D	.	2f	1a
.	4A	.	.
2C	[2A	2e	.
=11	=11	=11	=11
1BB	2A]	2.d	2b
.	2G	.	1dd
.	.	4e	.
1AA	1A	2f	.
.	.	4e	2cc
.	.	4c	.
=12	=12	=12	=12
0r	2G	4d	2b
.	.	4c	.
.	2F	4B	1a
.	.	4A	.
.	1E	2.B	.
.	.	.	2g
.	.	4c	.
=13	=13	=13	=13
1r	4D	1d	2.f
.	4E	.	.
.	4F	.	.
.	4G	.	8e
.	.	.	8d
1D	1A	2r	1f
.	.	2d	.
=14	=14	=14	=14
1A	2r	2c	0e
.	2c	4A	.
.	.	4B	.
1A	2A	4c	.
.	.	4d	.
.	[2c	4e	.
.	.	4c	.
=15	=15	=15	=15
1G	2c]	2.d	0r
.	2B	.	.
.	.	4e	.
2A	1A	2f	.
[2c	.	2e	.
=16	=16	=16	=16
2c]	1G	1g	1d
2B	.	.	.
2.A	[1c	2f	1a
.	.	[2e	.
4G	.	.	.
=17	=17	=17	=17
1F	2c]	2e]	1a
.	4B	2d	.
.	4A	.	.
1E	1B	1e	1g
=18	=18	=18	=18
1F	1A	2.c	2a
.	.	.	1cc
.	.	4d	.
2C	1r	4e	.
.	.	4f	.
2E	.	2g	2b
=19	=19	=19	=19
2F	1r	2f	2a
2G	.	1e	2g
1A	1D	.	2.f
.	.	2d	.
.	.	.	8e
.	.	.	8d
=20	=20	=20	=20
1r	1A	0e	2c
.	.	.	1cc
1AA	1A	.	.
.	.	.	4b
.	.	.	4a
=21	=21	=21	=21
1E	1G	1r	4b
.	.	.	4cc
.	.	.	2.b
1F	2A	1A	.
.	.	.	4a
.	[2c	.	[2a
=22	=22	=22	=22
1E	2c]	1e	2a]
.	2B	.	2g
1C	2A	1e	1cc
.	2G	.	.
=23	=23	=23	=23
1D	1F	1d	2a
.	.	.	2b
2.C	1G	2e	1cc
.	.	[2g	.
4BB	.	.	.
=24	=24	=24	=24
2C	1A	2g]	2r
2D	.	2f	2a
1GG	1G	2e	2b
.	.	2d	2b
=25	=25	=25	=25
1.AA	[0E	4c	1.cc
.	.	4B	.
.	.	4A	.
.	.	4G#	.
.	.	2A	.
2GG#	.	2B	2b
=26	=26	=26	=26
0AA	1E_	0c	0a
.	1E_	.	.
=27	=27	=27	=27
0E	0E]	0B	0g#
=28	=28	=28	=28
0r	0r	0A	0r
=29	=29	=29	=29
0r	0r	1A	0e
.	.	1G	.
=30	=30	=30	=30
0r	0r	1c	1e
.	.	2d	1d
.	.	[2f	.
=31	=31	=31	=31
0r	0r	2f]	1g
.	.	2e	.
.	.	2d	2a
.	.	4c	[2cc
.	.	4d	.
=32	=32	=32	=32
0r	0r	4e	2cc]
.	.	4f	.
.	.	4g	2b
.	.	4e	.
.	.	2f	2a
.	.	[2g	2g
=33	=33	=33	=33
0r	1r	2g]	1a
.	.	2f	.
.	[1E	2.g	2.b
.	.	4f	4a
=34	=34	=34	=34
0r	1E]	4e	4g
.	.	4d	4f
.	.	4c	4e
.	.	4B	4d
.	1E	4c	4e
.	.	4B	4f
.	.	4B	[2g
.	.	8A	.
.	.	8G	.
=35	=35	=35	=35
0r	1D	1A	2g]
.	.	.	2f
.	1G	2G	2e
.	.	2g	2d
=36	=36	=36	=36
0r	2A	2f	2c
.	1c	2e	2g
.	.	1d	2a
.	2B	.	2b
=37	=37	=37	=37
0r	2A	[0e	2cc
.	2G	.	2.b
.	1A	.	.
.	.	.	4a
.	.	.	[2a
=38	=38	=38	=38
0E	1B	0e]	2a]
.	.	.	4g
.	.	.	4f#
.	2r	.	2.g
.	2E	.	.
.	.	.	4a
=39	=39	=39	=39
1E	1G	2r	2b
.	.	1g	2cc
1D	1A	.	[1dd
.	.	2f	.
=40	=40	=40	=40
1G	1B	2.g	1dd]
.	.	4f	.
2A	2.c	2e	1r
[2F	.	4A	.
.	4B	4B	.
=41	=41	=41	=41
2F]	2A	4c	0r
.	.	4d	.
2E	2G	2e	.
2D	2.A	2f	.
2C	.	2e	.
.	4G	.	.
=42	=42	=42	=42
2.D	4F	1d	1r
.	4D	.	.
.	1A	.	.
4C	.	.	.
1BB	.	1r	1d
.	2G	.	.
=43	=43	=43	=43
1AA	1.c	2r	1a
.	.	2.A	.
1F	.	.	1a
.	.	4B	.
.	2A	4c	.
.	.	4d	.
=44	=44	=44	=44
1E	1r	2e	1g
.	.	2e	.
1r	1D	1f	1a
=45	=45	=45	=45
2r	1A	[0e	0cc
2.AA	.	.	.
.	1A	.	.
4BB	.	.	.
4C	.	.	.
4D	.	.	.
=46	=46	=46	=46
2E	1G	1e]	1b
2E	.	.	.
1F	1A	2.c	1a
.	.	4d	.
=47	=47	=47	=47
2E	1.c	2e	2g
2A	.	2c	2f
1G	.	2.d	1g
.	2B	.	.
.	.	4e	.
=48	=48	=48	=48
0r	1A	2f	2r
.	.	1e	1cc
.	1G	.	.
.	.	[2d	2b
=49	=49	=49	=49
2r	1F	2d]	1a
1F	.	2c	.
.	1G	1r	1g
2E	.	.	.
=50	=50	=50	=50
1D	1A	2r	1f
.	.	1f	.
1C	1c	.	1g
.	.	2e	.
=51	=51	=51	=51
0F	2.A	2d	0a
.	.	2c	.
.	4B	.	.
.	[1c	1f	.
=52	=52	=52	=52
0G	2c]	2e	0g
.	4B	4d	.
.	4A	4c	.
.	1B	1d	.
=53	=53	=53	=53
0C	0c	0g	0e
=54	=54	=54	=54
1.F	1r	0r	0r
.	[1c	.	.
2E	.	.	.
=55	=55	=55	=55
2F	2c]	0r	0r
2G	2B	.	.
2E	2c	.	.
2F	2d	.	.
=56	=56	=56	=56
1G	2B	0r	0r
.	1d	.	.
2F	.	.	.
[2E	2c	.	.
=57	=57	=57	=57
4E]	1B	1r	0r
4D	.	.	.
1G	.	.	.
.	1A	2r	.
2F	.	[2c	.
=58	=58	=58	=58
2.E	[0G	2c]	1r
.	.	2B	.
4D	.	.	.
4C	.	1c	2r
4BB	.	.	.
2C	.	.	[2cc
=59	=59	=59	=59
1GG	1G]	1d	2cc]
.	.	.	2b
1r	1r	2e	2cc
.	.	2f	2dd
=60	=60	=60	=60
0r	0r	1g	2b
.	.	.	1dd
.	.	2f	.
.	.	[2e	2cc
=61	=61	=61	=61
0r	2r	4e]	1b
.	.	4d	.
.	2B	1g	.
.	2c	.	1a
.	2d	2f#	.
=62	=62	=62	=62
2r	1B	2g	1g
2E	.	2G	.
2F	1d	2A	1r
2G	.	2B	.
=63	=63	=63	=63
2E	2c	1G	0r
2G	2B	.	.
2F	2A	1r	.
[2E	[2G	.	.
=64	=64	=64	=64
4E]	4G]	0r	1r
4D	4F	.	.
1D	2F	.	.
.	1E	.	2r
2C#	.	.	2e
=65	=65	=65	=65
2D	2D	1r	2f
2GG	1d	.	2g
1AA	.	2r	1e
.	2c	2A	.
=66	=66	=66	=66
1r	2d	2B	1g
.	2e	2c	.
2r	2.c	2A	2f
2E	.	[2c	[2e
.	4B	.	.
=67	=67	=67	=67
2F	2A	2c]	4e]
.	.	.	4d
2G	1B	4B	1d
.	.	4A	.
1E	.	2G	.
.	4A	[2g	2c#
.	4G	.	.
=68	=68	=68	=68
1D	1A	2g]	2d
.	.	4f	2d
.	.	4e	.
1r	1D	2f	2a
.	.	2d	2b
=69	=69	=69	=69
0r	1A	2e	1cc
.	.	2.f	.
.	1A	.	2a
.	.	4e	.
.	.	4e	[2cc
.	.	8d	.
.	.	8c	.
=70	=70	=70	=70
1r	1G	1d	2cc]
.	.	.	2b
1AA	2A	2c	2cc
.	[2c	[2e	2a
=71	=71	=71	=71
1E	2c]	2e]	1g
.	4B	4d	.
.	4A	4c	.
1E	1G	4B	1r
.	.	4G	.
.	.	[2g	.
=72	=72	=72	=72
1D	1A	2g]	0r
.	.	2f#	.
1E	2G	[1g	.
.	[2c	.	.
=73	=73	=73	=73
1G	2c]	1g]	1d
.	2B	.	.
2F	2c	1r	1a
2D	[2d	.	.
=74	=74	=74	=74
1F	4d]	1A	1a
.	4c	.	.
.	4c	.	.
.	8B	.	.
.	8A	.	.
1E	1B	1e	1g
=75	=75	=75	=75
2.A	1c	1e	2a
.	.	.	1cc
4G	.	.	.
2F	1r	1d	.
2G	.	.	[2b
=76	=76	=76	=76
1E	1G	2e	2b]
.	.	1g	4a
.	.	.	4g
1D	1d	.	1a
.	.	2f#	.
=77	=77	=77	=77
1E	2B	1e	1.g
.	1c	.	.
1G	.	1d	.
.	2B	.	2d
=78	=78	=78	=78
0C	2A	0c	2e
.	4G	.	2.g
.	4F	.	.
.	2E	.	.
.	.	.	4f
.	2G	.	[2e
=79	=79	=79	=79
0D	0F	1.A	2e]
.	.	.	4d
.	.	.	4c
.	.	.	1d
.	.	2B	.
=80	=80	=80	=80
0AA	1E	0c	[0e
.	1A	.	.
=81	=81	=81	=81
0E	0G#	0B	0e]
==	==	==	==
*-	*-	*-	*-
!!!CDT: 1525/^1526/-1594/2/2
!!!OCY: Italia
!!!AGN: Mass (Paraphrase)
!!!AST: renaissance, vocal
!!!ASW: Gregorian Mass
!!!PWK: Masses, Book 7
!!!RNB: Cadence finals: E,C,G,D,F
!!!YOR: Le Opere Complete, v. 23, p. 149
!!!YOO: Rome, Italy: Fratelli Scalera
!!!END: 1992//
!!!EED: John Miller
!!!YEC: Copyright 2000, John Miller
!!!YEN: United States of America
!!!YEM: Rights to all derivative electronic formats reserved.
!!!YEM: Refer to licensing agreement for further details.
!!!YEM: This file must be accompanied by the licensing agreement.
!!!YEM: A copy of the licensing agreement may be found at http://www.music-cog.ohio-state.edu/HumdrumDatabases/Palestrina/license.txt
!!!EMD: converted to Humdrum by Bret Aarden
